X:WFS 14-03 13
T:Slängpolska efter Byss-Calle
M:3/2
K:G
P:A
d3B G2G2 BABd A2B2 G2G2 BABd cBce d2Bd cBAG |1,3 FGAB AGFE D4 :|2,4 FGAB A4 G4 ||
P:B
d2d2 d2ef g2g2 g2fe d2ef g2B2 cBce d2Bd cBAG |1,3 FGAB AGFE D4 :|2,4 FGAB A4 G4 ||

%      WFS 14-03 14 = WFS 13-10 05 Jamie Allen,
% into WFS 14-03 15 = WFS 13-10 04 Uncle Bernard's Polka, 
% into WFS 14-03 16 = WFS 13-07 04 Jenny Lind's Polka

